packages/assets/images/hourglass.svg

<?xml version="1.0" encoding="UTF-8" standalone="no"?>
<svg width="249px" height="227px" viewBox="0 0 249 227" version="1.1" xmlns="http://www.w3.org/2000/svg" xmlns:xlink="http://www.w3.org/1999/xlink">
    <!-- Generator: Sketch 45.2 (43514) - http://www.bohemiancoding.com/sketch -->
    <title>Expanded</title>
    <desc>Created with Sketch.</desc>
    <defs>
        <rect id="path-1" x="0" y="0" width="250" height="226.69384"></rect>
        <rect id="path-3" x="0" y="226.69384" width="248.77451" height="2.45074421" rx="1.22537211"></rect>
        <polygon id="path-4" points="0 174 114 174 114 0 0 0"></polygon>
    </defs>
    <g id="403" stroke="none" stroke-width="1" fill="none" fill-rule="evenodd">
        <g id="Trail_v2" transform="translate(-835.000000, -77.000000)">
            <g id="Expanded" transform="translate(835.000000, 74.000000)">
                <g id="Illustration">
                    <g id="Oval-Copy">
                        <mask id="mask-2" fill="white">
                            <use xlink:href="#path-1"></use>
                        </mask>
                        <g id="Mask"></g>
                        <ellipse id="Oval" fill="#F2F2F2" mask="url(#mask-2)" cx="124.387255" cy="126.213327" rx="123.161765" ry="122.537211"></ellipse>
                    </g>
                </g>
                <g id="Rectangle-4">
                    <use fill="#000000" fill-rule="evenodd" xlink:href="#path-3"></use>
                    <rect stroke="#000000" stroke-width="1" x="0.5" y="227.19384" width="247.77451" height="1.45074421" rx="0.725372106"></rect>
                </g>
                <g id="Page-1" transform="translate(68.000000, 53.000000)">
                    <path d="M113.480638,173.481371 L0.519362187,173.481371 L0.519362187,165.442623 C0.519362187,162.578235 2.8445467,160.256334 5.71298405,160.256334 L108.287016,160.256334 C111.155453,160.256334 113.480638,162.578235 113.480638,165.442623 L113.480638,173.481371 Z" id="Fill-1" fill="#FFFFFF"></path>
                    <path d="M1.03872437,172.962742 L112.961276,172.962742 L112.961276,165.442623 C112.961276,162.868927 110.864351,160.774963 108.287016,160.774963 L5.71298405,160.774963 C3.1356492,160.774963 1.03872437,162.868927 1.03872437,165.442623 L1.03872437,172.962742 Z M114,174 L0,174 L0,165.442623 C0,162.296879 2.56279271,159.737705 5.71298405,159.737705 L108.287016,159.737705 C111.437207,159.737705 114,162.296879 114,165.442623 L114,174 Z" id="Fill-3" fill="#000000"></path>
                    <path d="M0.519362187,0.518628912 L113.480638,0.518628912 L113.480638,8.55737705 C113.480638,11.4217645 111.155453,13.7436662 108.287016,13.7436662 L5.71298405,13.7436662 C2.8445467,13.7436662 0.519362187,11.4217645 0.519362187,8.55737705 L0.519362187,0.518628912 Z" id="Fill-5" fill="#FFFFFF"></path>
                    <path d="M1.03872437,1.03725782 L1.03872437,8.55737705 C1.03872437,11.131073 3.1356492,13.2250373 5.71298405,13.2250373 L108.287016,13.2250373 C110.864351,13.2250373 112.961276,11.131073 112.961276,8.55737705 L112.961276,1.03725782 L1.03872437,1.03725782 Z M108.287016,14.2622951 L5.71298405,14.2622951 C2.56279271,14.2622951 0,11.7031207 0,8.55737705 L0,0 L114,0 L114,8.55737705 C114,11.7031207 111.437207,14.2622951 108.287016,14.2622951 L108.287016,14.2622951 Z" id="Fill-7" fill="#000000"></path>
                    <path d="M61.0319125,89.1797455 C59.9544957,88.2858885 59.9856574,85.5267827 61.1277349,84.7449496 C86.6099809,81.7332715 106.637366,51.0973431 106.637366,13.7436143 L7.36258223,13.7436143 C7.36258223,51.0973431 27.3897075,81.7332715 52.8719535,84.7449496 C54.0145503,85.5267827 54.0454524,88.2858885 52.9677759,89.1797455 C27.4400856,92.125817 7.36258223,122.792604 7.36258223,160.193269 L106.637366,160.193269 C106.637366,122.792604 86.5601221,92.125817 61.0319125,89.1797455" id="Fill-9" fill="#FFFFFF"></path>
                    <path d="M7.88324282,159.67464 L106.116705,159.67464 C106.027375,141.940124 101.367398,125.04475 92.9711289,112.047131 C84.5722633,99.0451046 73.208359,91.1069705 60.9721859,89.6950033 L60.818974,89.6771106 L60.7000401,89.5788304 C59.9209968,88.9323595 59.6893613,87.7050241 59.7324683,86.7720107 C59.7833658,85.6722581 60.19522,84.7542849 60.8340355,84.3170808 L60.9394661,84.2449914 L61.0667098,84.2299511 C73.2821084,82.7860882 84.6234205,74.8352477 93.0017713,61.8417782 C101.378304,48.8509019 106.027635,31.9731613 106.116705,14.2622432 L7.88324282,14.2622432 C7.97231344,31.9731613 12.6216437,48.8509019 20.9981768,61.8417782 C29.3765276,74.8352477 40.71758,82.7860882 52.9329786,84.2299511 L53.0602223,84.2449914 L53.1656528,84.3170808 C53.8044683,84.7542849 54.2163226,85.6719988 54.26722,86.7717514 C54.3103271,87.7047648 54.0789513,88.9323595 53.299908,89.5788304 L53.180974,89.6771106 L53.0275025,89.6950033 C40.7918487,91.1069705 29.4276847,99.0451046 21.0285595,112.047131 C12.6325503,125.04475 7.97257312,141.940124 7.88324282,159.67464 L7.88324282,159.67464 Z M107.156728,160.711897 L6.84322005,160.711897 L6.84322005,160.193269 C6.84322005,142.072893 11.570974,124.774544 20.156031,111.484938 C28.6870743,98.2780525 40.2514524,90.1871821 52.735621,88.6849735 C53.0698305,88.3157097 53.2653704,87.5917037 53.2295344,86.8194653 C53.1975936,86.1286516 52.9802405,85.52782 52.6662861,85.2425741 C40.1927645,83.7167678 28.6413704,75.6108572 20.1248692,62.403194 C11.5600674,49.120589 6.84322005,31.8396143 6.84322005,13.7436143 L6.84322005,13.2249854 L107.156728,13.2249854 L107.156728,13.7436143 C107.156728,31.8396143 102.439881,49.120589 93.8750788,62.403194 C85.3588374,75.6108572 73.8069239,83.7167678 61.3334023,85.2425741 C61.0197075,85.5280793 60.8020948,86.1289109 60.770154,86.8199839 C60.734318,87.591963 60.9301175,88.3157097 61.2640674,88.6849735 C73.7487554,90.1871821 85.3128738,98.2780525 93.8439171,111.484938 C102.428974,124.774544 107.156728,142.072893 107.156728,160.193269 L107.156728,160.711897 Z" id="Fill-11" fill="#000000"></path>
                    <path d="M14.1313257,159.737705 C14.1313257,133.099627 34.7559772,122.279213 57.7577494,117.728763 C85.2839453,112.283159 99.0470433,133.099627 99.0470433,159.737705 L14.1313257,159.737705 Z" id="Fill-13" fill="#00B49F"></path>
                    <path d="M112.810141,165.183308 L112.810141,172.703428 L0.887589977,172.703428 C0.887589977,172.703428 2.18599544,167.257824 11.0151526,166.739195 C19.8443098,166.220566 43.9946515,164.66468 46.0721002,166.479881 C48.149549,168.295082 87.6210752,168.813711 94.3727836,166.99851 C101.124492,165.183308 112.031098,164.66468 112.810141,165.183308" id="Fill-15" fill="#A8DBD5"></path>
                    <path d="M1.14727107,8.55737705 L1.14727107,1.03725782 L113.069822,1.03725782 C113.069822,1.03725782 111.771417,6.4828614 102.94226,7.00149031 C94.1131025,7.52011923 69.9627608,9.07600596 67.8853121,7.26080477 C65.8078633,5.44560358 26.3363371,4.92697466 19.5846287,6.74217586 C12.8329203,8.55737705 1.92631435,9.07600596 1.14727107,8.55737705" id="Fill-17" fill="#A8DBD5"></path>
                    <path d="M75.4160638,74.4232489 C75.4160638,74.4232489 68.9240364,82.9806259 56.9787062,82.9806259 C49.4479544,82.9806259 38.2816674,74.6825633 38.5413485,74.1639344 L75.4160638,74.4232489 Z" id="Fill-19" fill="#00B49F"></path>
                    <mask id="mask-5" fill="white">
                        <use xlink:href="#path-4"></use>
                    </mask>
                    <g id="Clip-22"></g>
                    <polygon id="Fill-21" fill="#00B49F" mask="url(#mask-5)" points="56.1996629 124.730253 58.0174305 124.730253 58.0174305 80.3874814 56.1996629 80.3874814"></polygon>
                    <path d="M69.2889403,145.141257 C69.2889403,145.141257 69.8908811,149.446396 73.5625121,149.52808 C77.2341431,149.609764 86.1975554,147.938482 86.1975554,147.938482 C86.1975554,147.938482 90.1236738,146.485284 87.7709631,141.627546 C85.4179927,136.769809 76.2270998,123.946968 76.2270998,123.946968 C76.2270998,123.946968 70.3318196,119.817385 68.5885804,127.151576 C66.8453412,134.485767 69.2889403,145.141257 69.2889403,145.141257" id="Fill-23" fill="#A8DBD5" mask="url(#mask-5)"></path>
                    <path d="M25.8169749,19.7078987 L21.9217585,19.7078987 C21.9217585,19.7078987 15.4297312,58.0864382 49.9673166,81.1654247 C49.9673166,81.1654247 24.5185695,63.2727273 25.8169749,19.7078987" id="Fill-24" fill="#A8DBD5" mask="url(#mask-5)"></path>
                    <path d="M26.076656,154.81073 L22.1814396,154.81073 C22.1814396,154.81073 15.6894123,116.432191 50.2269977,93.3532042 C50.2269977,93.3532042 24.7782506,111.245902 26.076656,154.81073" id="Fill-25" fill="#A8DBD5" mask="url(#mask-5)"></path>
                </g>
            </g>
        </g>
    </g>
</svg>

<svg width="249" height="227" xmlns="http://www.w3.org/2000/svg" xmlns:xlink="http://www.w3.org/1999/xlink">
  <defs>
    <path id="a" d="M0 0h250v226.694H0z"/>
    <path id="d" d="M0 174h114V0H0z"/>
    <rect id="c" x="0" y="226.694" width="248.775" height="2.451" rx="1.225"/>
  </defs>
  <g fill="none" fill-rule="evenodd">
    <g transform="translate(0 -3)">
      <mask id="b" fill="#fff">
        <use xlink:href="#a"/>
      </mask>
      <ellipse fill="#F2F2F2" mask="url(#b)" cx="124.387" cy="126.213" rx="123.162" ry="122.537"/>
    </g>
    <g transform="translate(0 -3)">
      <use fill="#000" xlink:href="#c"/>
      <rect stroke="#000" x=".5" y="227.194" width="247.775" height="1.451" rx=".725"/>
    </g>
    <g transform="translate(68 50)">
      <path d="M113.48 173.481H.52v-8.038a5.19 5.19 0 0 1 5.193-5.187h102.574a5.19 5.19 0 0 1 5.194 5.187v8.038Z" fill="#FFF"/>
      <path d="M1.039 172.963H112.96v-7.52a4.676 4.676 0 0 0-4.674-4.668H5.713a4.676 4.676 0 0 0-4.674 4.668v7.52ZM114 174H0v-8.557c0-3.146 2.563-5.705 5.713-5.705h102.574c3.15 0 5.713 2.559 5.713 5.705V174Z" fill="#000"/>
      <path d="M.52.519h112.96v8.038a5.19 5.19 0 0 1-5.193 5.187H5.713A5.19 5.19 0 0 1 .519 8.557V.52Z" fill="#FFF"/>
      <path d="M1.039 1.037v7.52a4.676 4.676 0 0 0 4.674 4.668h102.574a4.676 4.676 0 0 0 4.674-4.668v-7.52H1.04Zm107.248 13.225H5.713C2.563 14.262 0 11.703 0 8.557V0h114v8.557c0 3.146-2.563 5.705-5.713 5.705Z" fill="#000"/>
      <path d="M61.032 89.18c-1.078-.894-1.046-3.653.096-4.435 25.482-3.012 45.51-33.648 45.51-71.001H7.362c0 37.353 20.027 67.99 45.509 71 1.143.783 1.173 3.542.096 4.436-25.528 2.946-45.605 33.613-45.605 71.013h99.274c0-37.4-20.077-68.067-45.605-71.013" fill="#FFF"/>
      <path d="M7.883 159.675h98.234c-.09-17.735-4.75-34.63-13.146-47.628-8.399-13.002-19.763-20.94-31.999-22.352l-.153-.018-.119-.098c-.779-.647-1.01-1.874-.968-2.807.051-1.1.463-2.018 1.102-2.455l.105-.072.128-.015c12.215-1.444 23.556-9.395 31.935-22.388 8.376-12.991 13.026-29.869 13.115-47.58H7.883c.09 17.711 4.739 34.589 13.115 47.58 8.379 12.993 19.72 20.944 31.935 22.388l.127.015.106.072c.638.437 1.05 1.355 1.101 2.455.043.933-.188 2.16-.967 2.807l-.119.098-.153.018c-12.236 1.412-23.6 9.35-32 22.352-8.395 12.998-13.055 29.893-13.145 47.628Zm99.274 1.037H6.843v-.519c0-18.12 4.728-35.418 13.313-48.708 8.531-13.207 20.095-21.298 32.58-22.8.334-.37.53-1.093.494-1.866-.032-.69-.25-1.291-.564-1.576-12.473-1.526-24.025-9.632-32.541-22.84C11.56 49.121 6.843 31.84 6.843 13.743v-.518h100.314v.519c0 18.096-4.717 35.377-13.282 48.66C85.36 75.61 73.807 83.716 61.333 85.242c-.313.285-.53.886-.563 1.577-.036.772.16 1.496.494 1.865 12.485 1.502 24.049 9.593 32.58 22.8 8.585 13.29 13.313 30.588 13.313 48.708v.519Z" fill="#000"/>
      <path d="M14.131 159.738c0-26.638 20.625-37.459 43.627-42.01 27.526-5.445 41.289 15.372 41.289 42.01H14.131Z" fill="#00B49F"/>
      <path d="M112.81 165.183v7.52H.888s1.298-5.445 10.127-5.964c8.83-.518 32.98-2.074 35.057-.26 2.078 1.816 41.55 2.335 48.3.52 6.752-1.816 17.66-2.334 18.438-1.816M1.147 8.557v-7.52H113.07s-1.299 5.446-10.128 5.964c-8.829.52-32.98 2.075-35.057.26-2.077-1.815-41.549-2.334-48.3-.519C12.833 8.557 1.926 9.076 1.147 8.557" fill="#A8DBD5"/>
      <path d="M75.416 74.423s-6.492 8.558-18.437 8.558c-7.531 0-18.697-8.298-18.438-8.817l36.875.26Z" fill="#00B49F"/>
      <mask id="e" fill="#fff">
        <use xlink:href="#d"/>
      </mask>
      <path fill="#00B49F" mask="url(#e)" d="M56.2 124.73h1.817V80.387H56.2z"/>
      <path d="M69.289 145.141s.602 4.305 4.274 4.387c3.671.082 12.635-1.59 12.635-1.59s3.926-1.453 1.573-6.31c-2.353-4.858-11.544-17.681-11.544-17.681s-5.895-4.13-7.638 3.205c-1.744 7.334.7 17.99.7 17.99M25.817 19.708h-3.895S15.43 58.086 49.967 81.165c0 0-25.448-17.892-24.15-61.457M26.077 154.81H22.18s-6.492-38.378 28.046-61.457c0 0-25.449 17.893-24.15 61.458" fill="#A8DBD5" mask="url(#e)"/>
    </g>
  </g>
</svg>
